images/basket.svg

<svg width="33" height="33" fill="none" xmlns="http://www.w3.org/2000/svg"><path d="M9.9 26.4a3.31 3.31 0 00-3.3 3.3A3.31 3.31 0 009.9 33a3.31 3.31 0 003.3-3.3 3.31 3.31 0 00-3.3-3.3zM0 0v3.3h3.3l5.94 12.54-2.31 3.96c-.165.495-.33 1.155-.33 1.65a3.31 3.31 0 003.3 3.3h19.8v-3.3H10.56a.355.355 0 01-.33-.33v-.165l1.485-2.805h12.21c1.32 0 2.31-.66 2.805-1.65l5.94-10.725c.33-.33.33-.495.33-.825 0-.99-.66-1.65-1.65-1.65H6.93L5.445 0H0zm26.4 26.4a3.31 3.31 0 00-3.3 3.3 3.31 3.31 0 003.3 3.3 3.31 3.31 0 003.3-3.3 3.31 3.31 0 00-3.3-3.3z" fill="#fff"/></svg>

<svg width="33" height="33" viewBox="0 0 33 33" fill="none" xmlns="http://www.w3.org/2000/svg">
<path d="M9.9 26.4C8.085 26.4 6.6 27.885 6.6 29.7C6.6 31.515 8.085 33 9.9 33C11.715 33 13.2 31.515 13.2 29.7C13.2 27.885 11.715 26.4 9.9 26.4ZM0 0V3.3H3.3L9.24 15.84L6.93 19.8C6.765 20.295 6.6 20.955 6.6 21.45C6.6 23.265 8.085 24.75 9.9 24.75H29.7V21.45H10.56C10.395 21.45 10.23 21.285 10.23 21.12V20.9549L11.715 18.1499H23.925C25.245 18.1499 26.235 17.4899 26.73 16.4999L32.67 5.775C33 5.445 33 5.28 33 4.95C33 3.96 32.34 3.3 31.35 3.3H6.93L5.445 0H0ZM26.4 26.4C24.585 26.4 23.1 27.885 23.1 29.7C23.1 31.515 24.585 33 26.4 33C28.215 33 29.7 31.515 29.7 29.7C29.7 27.885 28.215 26.4 26.4 26.4Z" fill="white"/>
</svg>
